src/lib/packages/icons/src/assets/line/bandage.svg

<svg width="24" height="24" viewBox="0 0 24 24" fill="none" xmlns="http://www.w3.org/2000/svg">
<path d="M21.75 8.35014C21.75 7.45414 21.326 6.57603 20.49 5.74003L18.261 3.51103C16.576 1.82703 14.724 1.82903 13.041 3.51103L3.51001 13.042C2.67401 13.878 2.25 14.7559 2.25 15.6509C2.249 16.5469 2.67401 17.425 3.51001 18.261L5.73902 20.49C6.57502 21.326 7.453 21.75 8.349 21.75C9.245 21.75 10.123 21.326 10.958 20.49L13.6949 17.753C13.7059 17.743 13.719 17.74 13.73 17.73C13.741 17.72 13.7431 17.7061 13.7531 17.6961L17.696 13.753C17.706 13.744 17.72 13.741 17.73 13.731C17.74 13.721 17.743 13.7081 17.752 13.6971L20.489 10.96C21.326 10.124 21.75 9.24614 21.75 8.35014ZM13.194 16.1341L7.86597 10.806L10.8051 7.86699L16.1331 13.1951L13.194 16.1341ZM9.89795 19.43C8.80795 20.52 7.88495 20.517 6.79895 19.43L4.56995 17.201C4.02495 16.657 3.75 16.1351 3.75 15.6521C3.75 15.1691 4.02495 14.6471 4.56995 14.1031L6.80506 11.868L12.1331 17.1961L9.89795 19.43ZM19.4301 9.89799L17.1949 12.1331L11.8669 6.80497L14.103 4.56913C14.653 4.01913 15.153 3.74394 15.653 3.74394C16.152 3.74394 16.652 4.01913 17.202 4.56913L19.431 6.79814C19.975 7.34214 20.251 7.86394 20.251 8.34794C20.251 8.83194 19.9741 9.35399 19.4301 9.89799ZM15.5 7.25004C15.5 7.66404 15.164 8.00004 14.75 8.00004C14.336 8.00004 14 7.66404 14 7.25004C14 6.83604 14.336 6.50004 14.75 6.50004C15.164 6.50004 15.5 6.83604 15.5 7.25004ZM8 14.8001C8 15.2141 7.664 15.5501 7.25 15.5501C6.836 15.5501 6.5 15.2141 6.5 14.8001C6.5 14.3861 6.836 14.0501 7.25 14.0501C7.664 14.0501 8 14.3861 8 14.8001ZM7.5 17.25C7.5 17.664 7.164 18 6.75 18C6.336 18 6 17.664 6 17.25C6 16.836 6.336 16.5 6.75 16.5C7.164 16.5 7.5 16.836 7.5 17.25ZM10 16.75C10 17.164 9.664 17.5 9.25 17.5C8.836 17.5 8.5 17.164 8.5 16.75C8.5 16.336 8.836 16 9.25 16C9.664 16 10 16.336 10 16.75ZM18 6.80009C18 7.21409 17.664 7.55009 17.25 7.55009C16.836 7.55009 16.5 7.21409 16.5 6.80009C16.5 6.38609 16.836 6.05009 17.25 6.05009C17.664 6.05009 18 6.38609 18 6.80009ZM17.5 9.25004C17.5 9.66404 17.164 10 16.75 10C16.336 10 16 9.66404 16 9.25004C16 8.83604 16.336 8.50004 16.75 8.50004C17.164 8.50004 17.5 8.83604 17.5 9.25004Z" fill="currentColor"/>
</svg>

<svg xmlns="http://www.w3.org/2000/svg" width="24" height="24" fill="none"><path fill="currentColor" d="M21.75 8.35c0-.896-.424-1.774-1.26-2.61l-2.229-2.229c-1.685-1.684-3.537-1.682-5.22 0L3.51 13.042c-.836.836-1.26 1.714-1.26 2.609-.001.896.424 1.774 1.26 2.61l2.229 2.229c.836.836 1.714 1.26 2.61 1.26.896 0 1.774-.424 2.609-1.26l2.737-2.737c.01-.01.024-.013.035-.023.011-.01.013-.024.023-.034l3.943-3.943c.01-.009.024-.012.034-.022.01-.01.013-.023.022-.034l2.737-2.737c.837-.836 1.261-1.714 1.261-2.61Zm-8.556 7.784-5.328-5.328 2.94-2.939 5.327 5.328-2.939 2.94ZM9.898 19.43c-1.09 1.09-2.013 1.087-3.099 0L4.57 17.201c-.545-.544-.82-1.066-.82-1.549 0-.483.275-1.005.82-1.549l2.235-2.235 5.328 5.328-2.235 2.234Zm9.532-9.532-2.235 2.235-5.328-5.328 2.236-2.236c.55-.55 1.05-.825 1.55-.825.499 0 .999.275 1.549.825l2.229 2.23c.544.543.82 1.065.82 1.549s-.277 1.006-.82 1.55ZM15.5 7.25a.75.75 0 1 1-1.5 0 .75.75 0 0 1 1.5 0ZM8 14.8a.75.75 0 1 1-1.5 0 .75.75 0 0 1 1.5 0Zm-.5 2.45a.75.75 0 1 1-1.5 0 .75.75 0 0 1 1.5 0Zm2.5-.5a.75.75 0 1 1-1.5 0 .75.75 0 0 1 1.5 0Zm8-9.95a.75.75 0 1 1-1.5 0 .75.75 0 0 1 1.5 0Zm-.5 2.45a.75.75 0 1 1-1.5 0 .75.75 0 0 1 1.5 0Z"/></svg>
